X:129
T: Xiu he bao
N: C0211
O: China,Heilongjiang, Mudanjiang
S: III,  63]
N: Melodie des Beutelstickens.
N: Vereinzelt Verzierungen.
R: Xiaodiao, Shidiao, Xiuhebao diao. Nann siqing]
M: 2/4
L: 1/16
K: F
d2ddg2e2 | d4c2A2 | d2ddf2A2 | G2GFG4 |
A3cd2d2 | c2A2G2F2 | G2G2F2D2 | A2c2G2E2 | D3CD4

@@@ Tune index: 6130
